;FLAVOR:Marlin
;TIME:10256
;Filament used: 3.79322m
;Layer height: 0.2
;MINX:33.536
;MINY:81.513
;MINZ:0.2
;MAXX:186.025
;MAXY:138.537
;MAXZ:106.4
;TARGET_MACHINE.NAME:Creality Ender-3 S1 Pro
;Generated with Cura_SteamEngine 5.10.2
; Ender 3 S1 Pro Start G-code
; M413 S0 ; Disable power loss recovery
G92 E0 ; Reset Extruder

; Prep surfaces before auto home for better accuracy
M140 S60.0
M104 S210.0

G28 ; Home all axes
G1 Z10.0 F3000 ; Move Z Axis up little to prevent scratching of Heat Bed
G1 X0 Y0

M190 S60.0
M109 S210.0

G1 X0.1 Y20 Z0.3 F5000.0 ; Move to start position
G1 X0.1 Y200.0 Z0.3 F1500.0 E15 ; Draw the first line
G1 X0.4 Y200.0 Z0.3 F5000.0 ; Move to side a little
G1 X0.4 Y20 Z0.3 F1500.0 E30 ; Draw the second line
G92 E0 ; Reset Extruder
G1 Z2.0 F3000 ; Move Z Axis up little to prevent scratching of Heat Bed
G1 X5 Y20 Z0.3 F5000.0 ; Move over to prevent blob squish

M82 ;absolute extrusion mode
G92 E0
G92 E0
G1 F2400 E-3
;LAYER_COUNT:532
;LAYER:0
M107
M204 S2000
G0 F7500 X40.892 Y86.936 Z0.2
M204 S500
;TYPE:SKIRT
G1 F2400 E0
G1 F1500 X41.796 Y86.575 E0.03238
G1 X42.66 Y86.312 E0.06241
G1 X43.828 Y86.077 E0.10204
G1 X44.453 Y86.002 E0.12298
G1 X47.511 Y85.69 E0.22522
G1 X50.007 Y85.359 E0.30896
G1 X52.487 Y84.959 E0.39251
G1 X54.96 Y84.485 E0.47626
G1 X57.429 Y83.944 E0.56033
G1 X60.837 Y83.07 E0.67735
G1 X62.362 Y82.641 E0.73004
G1 X63.025 Y82.475 E0.75277
G1 X64.062 Y82.243 E0.78811
G1 X65.52 Y81.961 E0.8375
G1 X65.992 Y81.889 E0.85338
G1 X67.844 Y81.658 E0.91546
G1 X68.574 Y81.597 E0.93982
G1 X69.868 Y81.542 E0.9829
G1 X71.424 Y81.515 E1.03466
G1 X71.871 Y81.524 E1.04953
G1 X73.727 Y81.61 E1.11133
G1 X73.84 Y81.631 E1.11515
G1 X74.309 Y81.657 E1.13078
G1 X75.212 Y81.755 E1.16099
G1 X76.692 Y81.944 E1.21061
G1 X78.056 Y82.172 E1.25661
G1 X79.527 Y82.449 E1.30639
G1 X79.946 Y82.537 E1.32063
G1 X82.376 Y83.123 E1.40377
G1 X83.459 Y83.422 E1.44114
G1 X86.961 Y84.419 E1.56224
G1 X89.397 Y85.036 E1.64582
G1 X91.806 Y85.573 E1.72792
G1 X94.331 Y86.062 E1.81346
G1 X96.786 Y86.467 E1.89621
G1 X99.295 Y86.807 E1.98043
G1 X101.793 Y87.075 E2.06399
G1 X104.319 Y87.273 E2.14826
G1 X106.79 Y87.396 E2.23055
G1 X109.342 Y87.451 E2.31545
G1 X111.842 Y87.434 E2.3986
G1 X114.367 Y87.346 E2.48263
G1 X116.918 Y87.185 E2.56765
G1 X119.352 Y86.962 E2.64894
G1 X121.893 Y86.656 E2.73407
G1 X124.369 Y86.287 E2.81733
G1 X126.837 Y85.847 E2.90071
G1 X129.343 Y85.327 E2.98583
G1 X131.715 Y84.764 E3.06692
G1 X135.278 Y83.791 E3.18976
G1 X136.717 Y83.375 E3.23959
G1 X138.123 Y82.998 E3.288
G1 X139.887 Y82.578 E3.34831
G1 X141.202 Y82.308 E3.39296
G1 X142.898 Y82.008 E3.45025
G1 X143.919 Y81.864 E3.48454
G1 X144.837 Y81.755 E3.51529
G1 X146.031 Y81.633 E3.55521
G1 X146.863 Y81.578 E3.58294
G1 X147.826 Y81.536 E3.615
G1 X148.723 Y81.513 E3.64484
G1 X149.547 Y81.516 E3.67225
G1 X150.57 Y81.558 E3.7063
G1 X151.538 Y81.611 E3.73855
G1 X151.651 Y81.633 E3.74238
G1 X152.17 Y81.662 E3.75967
G1 X153.528 Y81.826 E3.80516
G1 X154.401 Y81.951 E3.83449
G1 X154.989 Y82.053 E3.85434
G1 X155.754 Y82.207 E3.8803
G1 X157.029 Y82.487 E3.92372
G1 X157.557 Y82.617 E3.9418
G1 X160.558 Y83.456 E4.04544
G1 X163 Y84.069 E4.12918
G1 X165.482 Y84.617 E4.21372
G1 X167.929 Y85.086 E4.29659
G1 X170.459 Y85.497 E4.38184
G1 X172.919 Y85.825 E4.46439
G1 X174.949 Y86.045 E4.5323
G1 X175.948 Y86.194 E4.5659
G1 X176.967 Y86.446 E4.60081
G1 X177.888 Y86.765 E4.63323
G1 X178.776 Y87.163 E4.66559
G1 X179.626 Y87.639 E4.69799
G1 X180.429 Y88.188 E4.73035
G1 X181.183 Y88.807 E4.76279
G1 X181.877 Y89.488 E4.79513
G1 X182.465 Y90.173 E4.82516
G1 X183.057 Y91.001 E4.85901
G1 X183.72 Y92.17 E4.90371
G1 X184.708 Y94.206 E4.97898
G1 X184.737 Y94.289 E4.98191
G1 X184.883 Y94.593 E4.99312
G1 X185.218 Y95.468 E5.02429
G1 X185.465 Y96.324 E5.05392
G1 X185.645 Y97.209 E5.08396
G1 X185.763 Y98.241 E5.1185
G1 X185.786 Y98.962 E5.1425
G1 X185.778 Y100.313 E5.18743
G1 X185.798 Y102.897 E5.27338
G1 X185.919 Y106.055 E5.37849
G1 X186.005 Y107.538 E5.4279
G1 X186.025 Y108.159 E5.44856
G1 X186.007 Y109.088 E5.47947
G1 X185.955 Y109.853 E5.50497
G1 X185.905 Y110.398 E5.52317
G1 X185.805 Y111.158 E5.54867
G1 X185.592 Y112.306 E5.5875
G1 X185.423 Y113.027 E5.61213
G1 X185.169 Y113.957 E5.6442
G1 X185.057 Y114.328 E5.65709
G1 X184.83 Y115.008 E5.68093
G1 X184.669 Y115.445 E5.69642
G1 X184.346 Y116.253 E5.72536
G1 X184.118 Y116.784 E5.74459
G1 X183.747 Y117.585 E5.77395
G1 X183.528 Y118.027 E5.79035
G1 X183.252 Y118.552 E5.81008
G1 X182.63 Y119.652 E5.85211
G1 X182.143 Y120.433 E5.88272
G1 X181.594 Y121.261 E5.91577
G1 X181.168 Y121.867 E5.9404
G1 X180.608 Y122.63 E5.97188
G1 X179.992 Y123.426 E6.00536
G1 X179.68 Y123.806 E6.02171
G1 X179.152 Y124.421 E6.04867
G1 X178.164 Y125.521 E6.09785
G1 X177.57 Y126.158 E6.12682
G1 X177.15 Y126.588 E6.14681
G1 X176.535 Y127.186 E6.17534
G1 X175.774 Y127.904 E6.21014
G1 X175.207 Y128.423 E6.2357
G1 X174.472 Y129.062 E6.2681
G1 X173.475 Y129.879 E6.31097
G1 X172.7 Y130.493 E6.34386
G1 X172.128 Y130.928 E6.36776
G1 X170.848 Y131.836 E6.41995
G1 X169.931 Y132.457 E6.45679
G1 X169.572 Y132.686 E6.47095
G1 X168.628 Y133.258 E6.50766
G1 X167.319 Y134.016 E6.55797
G1 X166.799 Y134.293 E6.57757
G1 X165.585 Y134.898 E6.62268
G1 X164.893 Y135.23 E6.64821
G1 X164.119 Y135.573 E6.67637
G1 X163.088 Y135.988 E6.71333
G1 X162.312 Y136.286 E6.74098
G1 X161.531 Y136.56 E6.76851
G1 X160.688 Y136.829 E6.79794
G1 X159.636 Y137.147 E6.83449
G1 X159.002 Y137.312 E6.85628
G1 X158.135 Y137.516 E6.88591
G1 X156.777 Y137.809 E6.93211
G1 X156.232 Y137.91 E6.95055
G1 X154.735 Y138.14 E7.00092
G1 X153.839 Y138.255 E7.03097
G1 X153.162 Y138.325 E7.05361
G1 X152.001 Y138.422 E7.09236
G1 X151.297 Y138.469 E7.11582
G1 X150.547 Y138.501 E7.14079
G1 X149.521 Y138.53 E7.17493
G1 X148.995 Y138.535 E7.19243
G1 X147.499 Y138.521 E7.24219
G1 X146.717 Y138.503 E7.2682
G1 X145.74 Y138.458 E7.30073
G1 X144.142 Y138.337 E7.35403
G1 X142.657 Y138.185 E7.40368
G1 X141.439 Y138.025 E7.44454
G1 X140.756 Y137.921 E7.46752
G1 X139.185 Y137.649 E7.52055
G1 X138.511 Y137.52 E7.54337
G1 X137.737 Y137.358 E7.56967
G1 X136.635 Y137.091 E7.60739
G1 X135.557 Y136.809 E7.64445
G1 X133.62 Y136.276 E7.71127
G1 X131.176 Y135.641 E7.79525
G1 X128.675 Y135.066 E7.88061
G1 X126.203 Y134.571 E7.96446
G1 X123.73 Y134.148 E8.04791
G1 X121.246 Y133.795 E8.13135
G1 X118.786 Y133.517 E8.2137
G1 X116.213 Y133.297 E8.29959
G1 X113.732 Y133.159 E8.38223
G1 X111.201 Y133.088 E8.46645
G1 X108.711 Y133.09 E8.54926
G1 X106.167 Y133.163 E8.63391
G1 X103.665 Y133.303 E8.71726
G1 X101.14 Y133.519 E8.80155
G1 X98.666 Y133.803 E8.88437
G1 X96.163 Y134.159 E8.96846
G1 X93.663 Y134.59 E9.05284
G1 X91.241 Y135.076 E9.135
G1 X88.751 Y135.651 E9.22
G1 X86.276 Y136.295 E9.30506
G1 X84.764 Y136.724 E9.35733
G1 X82.983 Y137.188 E9.41855
G1 X81.82 Y137.452 E9.45821
G1 X80.53 Y137.701 E9.50191
G1 X79.222 Y137.929 E9.54607
G1 X78.306 Y138.062 E9.57686
G1 X77.227 Y138.201 E9.61304
G1 X76.298 Y138.3 E9.64411
G1 X74.806 Y138.416 E9.69389
G1 X73.894 Y138.475 E9.72428
G1 X73.133 Y138.505 E9.74961
G1 X71.857 Y138.533 E9.79206
G1 X71.207 Y138.537 E9.81368
G1 X70.246 Y138.523 E9.84565
G1 X69.144 Y138.487 E9.88232
G1 X68.089 Y138.426 E9.91747
G1 X66.749 Y138.316 E9.96219
G1 X65.809 Y138.212 E9.99364
G1 X64.485 Y138.025 E10.03812
G1 X63.642 Y137.887 E10.06653
G1 X63.072 Y137.779 E10.08583
G1 X62.015 Y137.552 E10.12178
G1 X60.762 Y137.248 E10.16467
G1 X60.22 Y137.097 E10.18338
G1 X58.911 Y136.701 E10.22887
G1 X57.84 Y136.344 E10.26641
G1 X56.754 Y135.924 E10.30514
G1 X55.216 Y135.281 E10.36059
G1 X54.841 Y135.108 E10.37432
G1 X53.632 Y134.51 E10.41918
G1 X52.758 Y134.059 E10.4519
G1 X52.265 Y133.787 E10.47062
G1 X50.977 Y133.022 E10.52045
G1 X50.095 Y132.472 E10.55502
G1 X49.553 Y132.115 E10.57661
G1 X48.571 Y131.426 E10.61651
G1 X47.456 Y130.616 E10.66234
G1 X47.004 Y130.266 E10.68136
G1 X45.63 Y129.145 E10.74034
G1 X44.87 Y128.492 E10.77366
G1 X43.998 Y127.691 E10.81305
G1 X42.691 Y126.431 E10.87343
G1 X42.405 Y126.136 E10.88709
G1 X40.837 Y124.41 E10.96465
G1 X40.382 Y123.881 E10.98786
G1 X39.846 Y123.218 E11.01622
G1 X39.195 Y122.37 E11.05177
G1 X38.931 Y122.012 E11.06657
G1 X38.481 Y121.369 E11.09267
G1 X38.01 Y120.661 E11.12095
G1 X37.56 Y119.944 E11.14911
G1 X36.955 Y118.914 E11.18884
G1 X36.545 Y118.166 E11.21721
G1 X36.336 Y117.757 E11.23249
G1 X36.085 Y117.231 E11.25187
G1 X35.689 Y116.347 E11.28409
G1 X35.462 Y115.794 E11.30397
G1 X35.145 Y114.935 E11.33443
G1 X34.978 Y114.44 E11.3518
G1 X34.777 Y113.771 E11.37503
G1 X34.519 Y112.814 E11.408
G1 X34.398 Y112.268 E11.4266
G1 X34.218 Y111.284 E11.45987
G1 X34.092 Y110.326 E11.49201
G1 X34.004 Y109.298 E11.52633
G1 X33.967 Y108.592 E11.54984
G1 X33.934 Y106.763 E11.61068
G1 X33.84 Y104.518 E11.68542
G1 X33.625 Y100.634 E11.8148
G1 X33.553 Y99.551 E11.8509
G1 X33.536 Y98.578 E11.88326
G1 X33.604 Y97.606 E11.91567
G1 X33.758 Y96.645 E11.94804
G1 X33.989 Y95.726 E11.97956
G1 X34.484 Y94.381 E12.02723
G1 X35.457 Y92.294 E12.10382
G1 X35.909 Y91.431 E12.13622
G1 X36.436 Y90.611 E12.16864
G1 X37.032 Y89.842 E12.201
G1 X37.669 Y89.153 E12.23221
G1 X38.417 Y88.476 E12.26576
G1 X39.136 Y87.93 E12.29579
G1 X40.023 Y87.375 E12.33059
G1 X40.892 Y86.936 E12.36297
M204 S2000
G0 F7500 X41.041 Y87.307
M204 S500
G1 F1500 X41.912 Y86.958 E12.39418
G1 X42.776 Y86.695 E12.42422
G1 X43.876 Y86.474 E12.46154
G1 X44.494 Y86.4 E12.48224
G1 X47.564 Y86.087 E12.58488
G1 X50.06 Y85.756 E12.66862
G1 X52.555 Y85.353 E12.75268
G1 X55.046 Y84.876 E12.83704
G1 X57.515 Y84.334 E12.92111
G1 X60.945 Y83.455 E13.03888
G1 X62.459 Y83.029 E13.09119
G1 X63.112 Y82.865 E13.11358
G1 X64.138 Y82.636 E13.14855
G1 X65.596 Y82.354 E13.19794
G1 X66.042 Y82.286 E13.21295
G1 X67.878 Y82.057 E13.27449
G1 X68.591 Y81.997 E13.29828
G1 X69.875 Y81.942 E13.34103
G1 X71.416 Y81.915 E13.39229
G1 X71.852 Y81.924 E13.4068
G1 X73.708 Y82.01 E13.46859
G1 X73.774 Y82.028 E13.47087
G1 X74.266 Y82.055 E13.48726
G1 X75.161 Y82.152 E13.5172
G1 X76.626 Y82.339 E13.56632
G1 X77.982 Y82.565 E13.61204
G1 X79.444 Y82.84 E13.66152
G1 X79.852 Y82.926 E13.67539
G1 X82.27 Y83.509 E13.75812
G1 X83.349 Y83.807 E13.79535
G1 X86.85 Y84.804 E13.91642
G1 X89.299 Y85.424 E14.00045
G1 X91.73 Y85.966 E14.08329
G1 X94.261 Y86.456 E14.16903
G1 X96.721 Y86.862 E14.25196
G1 X99.252 Y87.205 E14.33691
G1 X101.752 Y87.473 E14.42054
G1 X104.299 Y87.673 E14.50551
G1 X106.77 Y87.796 E14.5878
G1 X109.336 Y87.851 E14.67316
G1 X111.856 Y87.834 E14.75698
G1 X114.381 Y87.746 E14.84101
G1 X116.943 Y87.584 E14.9264
G1 X119.4 Y87.359 E15.00846
G1 X121.952 Y87.052 E15.09395
G1 X124.428 Y86.683 E15.17721
G1 X126.917 Y86.239 E15.2613
G1 X129.424 Y85.719 E15.34646
G1 X131.82 Y85.15 E15.42837
G1 X135.383 Y84.177 E15.55121
G1 X136.821 Y83.761 E15.601
G1 X138.216 Y83.387 E15.64904
G1 X139.967 Y82.97 E15.70891
G1 X141.272 Y82.702 E15.75322
G1 X142.954 Y82.404 E15.81003
G1 X143.966 Y82.261 E15.84402
G1 X144.878 Y82.153 E15.87457
G1 X146.057 Y82.032 E15.91399
G1 X146.881 Y81.978 E15.94145
G1 X147.836 Y81.936 E15.97325
G1 X148.722 Y81.913 E16.00273
G1 X149.531 Y81.916 E16.02964
G1 X150.548 Y81.957 E16.06349
G1 X151.516 Y82.01 E16.09573
G1 X151.581 Y82.029 E16.09798
G1 X152.122 Y82.059 E16.11601
G1 X153.471 Y82.222 E16.1612
G1 X154.333 Y82.345 E16.19016
G1 X154.91 Y82.445 E16.20964
G1 X155.668 Y82.598 E16.23536
G1 X156.933 Y82.875 E16.27843
G1 X157.449 Y83.002 E16.2961
G1 X160.461 Y83.844 E16.40012
G1 X162.914 Y84.46 E16.48424
G1 X165.396 Y85.008 E16.56878
G1 X167.861 Y85.48 E16.65226
G1 X170.395 Y85.892 E16.73765
G1 X172.876 Y86.223 E16.8209
G1 X174.89 Y86.441 E16.88827
G1 X175.889 Y86.59 E16.92187
G1 X176.837 Y86.824 E16.95435
G1 X177.725 Y87.13 E16.98558
G1 X178.581 Y87.512 E17.01676
G1 X179.401 Y87.97 E17.048
G1 X180.176 Y88.498 E17.07919
G1 X180.903 Y89.093 E17.11044
G1 X181.573 Y89.749 E17.14162
G1 X182.161 Y90.434 E17.17165
G1 X182.731 Y91.233 E17.20429
G1 X183.36 Y92.345 E17.24679
G1 X184.348 Y94.381 E17.32206
G1 X184.358 Y94.425 E17.32356
G1 X184.509 Y94.736 E17.33506
G1 X184.844 Y95.611 E17.36622
G1 X185.073 Y96.404 E17.39367
G1 X185.253 Y97.289 E17.42371
G1 X185.363 Y98.254 E17.45601
G1 X185.386 Y98.96 E17.47951
G1 X185.378 Y100.311 E17.52444
G1 X185.398 Y102.912 E17.61095
G1 X185.52 Y106.07 E17.71607
G1 X185.605 Y107.551 E17.76541
G1 X185.625 Y108.152 E17.78541
G1 X185.608 Y109.061 E17.81565
G1 X185.557 Y109.816 E17.84082
G1 X185.508 Y110.346 E17.85852
G1 X185.408 Y111.106 E17.88401
G1 X185.202 Y112.215 E17.92153
G1 X185.037 Y112.922 E17.94568
G1 X184.786 Y113.841 E17.97736
G1 X184.677 Y114.202 E17.98991
G1 X184.455 Y114.869 E18.01329
G1 X184.297 Y115.297 E18.02846
G1 X183.979 Y116.095 E18.05703
G1 X183.755 Y116.616 E18.07589
G1 X183.389 Y117.407 E18.10488
G1 X183.174 Y117.841 E18.12099
G1 X182.904 Y118.355 E18.1403
G1 X182.29 Y119.441 E18.1818
G1 X181.81 Y120.212 E18.212
G1 X181.267 Y121.031 E18.24469
G1 X180.846 Y121.63 E18.26904
G1 X180.291 Y122.385 E18.3002
G1 X179.683 Y123.172 E18.33328
G1 X179.376 Y123.546 E18.34937
G1 X178.855 Y124.154 E18.37601
G1 X177.871 Y125.248 E18.42495
G1 X177.277 Y125.885 E18.45391
G1 X176.871 Y126.301 E18.47325
G1 X176.261 Y126.895 E18.50157
G1 X175.504 Y127.609 E18.53618
G1 X174.945 Y128.121 E18.56139
G1 X174.218 Y128.753 E18.59343
G1 X173.226 Y129.566 E18.63609
G1 X172.458 Y130.175 E18.66869
G1 X171.897 Y130.602 E18.69214
G1 X170.624 Y131.505 E18.74405
G1 X169.716 Y132.12 E18.78052
G1 X169.365 Y132.344 E18.79437
G1 X168.428 Y132.912 E18.83082
G1 X167.131 Y133.663 E18.88066
G1 X166.621 Y133.935 E18.89989
G1 X165.412 Y134.537 E18.94481
G1 X164.731 Y134.864 E18.96994
G1 X163.969 Y135.202 E18.99766
G1 X162.945 Y135.615 E19.03439
G1 X162.179 Y135.909 E19.06167
G1 X161.41 Y136.179 E19.08878
G1 X160.572 Y136.446 E19.11804
G1 X159.535 Y136.76 E19.15407
G1 X158.911 Y136.923 E19.17552
G1 X158.051 Y137.125 E19.20491
G1 X156.704 Y137.416 E19.25074
G1 X156.171 Y137.515 E19.26877
G1 X154.684 Y137.743 E19.31881
G1 X153.798 Y137.857 E19.34852
G1 X153.128 Y137.926 E19.37092
G1 X151.975 Y138.023 E19.4094
G1 X151.28 Y138.069 E19.43257
G1 X150.536 Y138.101 E19.45734
G1 X149.517 Y138.13 E19.49125
G1 X148.999 Y138.135 E19.50848
G1 X147.508 Y138.121 E19.55807
G1 X146.735 Y138.103 E19.58379
G1 X145.77 Y138.059 E19.61591
G1 X144.183 Y137.939 E19.66885
G1 X142.709 Y137.788 E19.71813
G1 X141.499 Y137.629 E19.75872
G1 X140.824 Y137.527 E19.78143
G1 X139.26 Y137.256 E19.83422
G1 X138.593 Y137.129 E19.8568
G1 X137.831 Y136.969 E19.8827
G1 X136.736 Y136.704 E19.92017
G1 X135.663 Y136.423 E19.95706
G1 X133.726 Y135.89 E20.02388
G1 X131.266 Y135.251 E20.10842
G1 X128.765 Y134.676 E20.19377
G1 X126.282 Y134.179 E20.278
G1 X123.786 Y133.752 E20.36222
G1 X121.302 Y133.399 E20.44567
G1 X118.82 Y133.118 E20.52875
G1 X116.247 Y132.899 E20.61463
G1 X113.743 Y132.759 E20.69805
G1 X111.212 Y132.688 E20.78226
G1 X108.7 Y132.69 E20.86581
G1 X106.156 Y132.763 E20.95046
G1 X103.631 Y132.905 E21.03457
G1 X101.106 Y133.121 E21.11886
G1 X98.61 Y133.407 E21.20242
G1 X96.107 Y133.763 E21.28651
G1 X93.588 Y134.197 E21.37153
G1 X91.151 Y134.686 E21.4542
G1 X88.661 Y135.261 E21.5392
G1 X86.167 Y135.91 E21.62491
G1 X84.663 Y136.337 E21.67691
G1 X82.895 Y136.798 E21.73768
G1 X81.744 Y137.059 E21.77693
G1 X80.461 Y137.307 E21.8204
G1 X79.165 Y137.533 E21.86415
G1 X78.255 Y137.665 E21.89474
G1 X77.185 Y137.803 E21.93062
G1 X76.267 Y137.901 E21.96133
G1 X74.78 Y138.017 E22.01093
G1 X73.878 Y138.075 E22.041
G1 X73.124 Y138.105 E22.06609
G1 X71.855 Y138.133 E22.10831
G1 X71.213 Y138.137 E22.12966
G1 X70.259 Y138.123 E22.1614
G1 X69.167 Y138.088 E22.19774
G1 X68.122 Y138.027 E22.23255
G1 X66.793 Y137.918 E22.2769
G1 X65.865 Y137.816 E22.30796
G1 X64.549 Y137.63 E22.35216
G1 X63.716 Y137.494 E22.38023
G1 X63.156 Y137.388 E22.39919
G1 X62.109 Y137.163 E22.43481
G1 X60.87 Y136.863 E22.47721
G1 X60.336 Y136.714 E22.49565
G1 X59.037 Y136.322 E22.54078
G1 X57.984 Y135.971 E22.57769
G1 X56.908 Y135.555 E22.61606
G1 X55.384 Y134.918 E22.671
G1 X55.018 Y134.749 E22.68441
G1 X53.816 Y134.155 E22.729
G1 X52.951 Y133.708 E22.76139
G1 X52.469 Y133.443 E22.77968
G1 X51.189 Y132.683 E22.82919
